findly-builder/apps/searchassist/src/assets/icons/search-interface/top-aligned.svg

<svg width="468" height="232" viewBox="0 0 468 232" fill="none" xmlns="http://www.w3.org/2000/svg">
<path d="M0.5 4C0.5 2.067 2.067 0.5 4 0.5H407C408.933 0.5 410.5 2.067 410.5 4V17.6228H0.5V4Z" fill="#F3F8FF" stroke="#EFF0F1"/>
<rect x="0.5" y="0.5" width="410" height="230.066" rx="3.5" stroke="#E4E5E7"/>
<rect x="13.5" y="26.5" width="385" height="16" rx="0.5" stroke="#EFF0F1"/>
<rect x="13" y="47" width="386" height="32" rx="2" fill="#EFF0F1"/>
<rect x="406" y="56" width="9.89949" height="9.8995" transform="rotate(45 406 56)" fill="#202124"/>
<g filter="url(#filter0_d)">
<rect x="406" y="46" width="58" height="34" rx="4" fill="#202124"/>
<path d="M421.717 67H423.035V63.9105H426.057V62.8061H423.035V60.8317H426.376V59.7273H421.717V67ZM429.041 67.1101C429.896 67.1101 430.408 66.7088 430.642 66.2507H430.685V67H431.921V63.3494C431.921 61.9077 430.745 61.4744 429.705 61.4744C428.558 61.4744 427.677 61.9858 427.393 62.9801L428.593 63.1506C428.721 62.7777 429.083 62.4581 429.712 62.4581C430.308 62.4581 430.635 62.7635 430.635 63.2997V63.321C430.635 63.6903 430.248 63.7081 429.286 63.8111C428.227 63.9247 427.215 64.2408 427.215 65.4695C427.215 66.5419 428 67.1101 429.041 67.1101ZM429.374 66.1655C428.838 66.1655 428.455 65.9205 428.455 65.4482C428.455 64.9545 428.884 64.7486 429.46 64.6669C429.797 64.6207 430.472 64.5355 430.639 64.4006V65.0433C430.639 65.6506 430.149 66.1655 429.374 66.1655ZM435.593 67.1065C436.963 67.1065 437.837 66.2933 437.929 65.1357H436.7C436.59 65.7216 436.168 66.0589 435.603 66.0589C434.801 66.0589 434.282 65.3878 434.282 64.2727C434.282 63.1719 434.811 62.5114 435.603 62.5114C436.221 62.5114 436.601 62.9091 436.7 63.4347H437.929C437.84 62.2521 436.917 61.4744 435.585 61.4744C433.987 61.4744 432.979 62.6286 432.979 64.294C432.979 65.9453 433.963 67.1065 435.593 67.1065ZM441.4 67.1065C442.671 67.1065 443.544 66.4851 443.772 65.5369L442.571 65.402C442.397 65.8636 441.971 66.1051 441.417 66.1051C440.586 66.1051 440.036 65.5582 440.025 64.6243H443.825V64.2301C443.825 62.3161 442.674 61.4744 441.332 61.4744C439.77 61.4744 438.75 62.6214 438.75 64.3047C438.75 66.0163 439.755 67.1065 441.4 67.1065ZM440.029 63.7578C440.068 63.0618 440.583 62.4759 441.35 62.4759C442.088 62.4759 442.586 63.0156 442.593 63.7578H440.029ZM447.636 61.5455H446.56V60.2386H445.275V61.5455H444.501V62.5398H445.275V65.5724C445.268 66.5987 446.013 67.103 446.979 67.0746C447.345 67.0639 447.597 66.9929 447.736 66.9467L447.519 65.9418C447.448 65.9595 447.302 65.9915 447.143 65.9915C446.819 65.9915 446.56 65.8778 446.56 65.3594V62.5398H447.636V61.5455Z" fill="white"/>
</g>
<path fill-rule="evenodd" clip-rule="evenodd" d="M354.715 109.118C354.851 109.253 354.859 109.468 354.739 109.612L354.715 109.639L351.493 112.861C351.349 113.005 351.116 113.005 350.973 112.861C350.838 112.726 350.83 112.511 350.949 112.367L350.973 112.34L353.935 109.378L350.973 106.416C350.838 106.281 350.83 106.067 350.949 105.922L350.973 105.896C351.108 105.761 351.322 105.753 351.467 105.872L351.493 105.896L354.715 109.118Z" fill="#BDC1C6"/>
<rect x="13.5" y="89.5" width="75" height="40" rx="3.5" fill="white" stroke="#E7F1FF"/>
<rect x="17" y="94" width="63" height="11" rx="2" fill="#F8F9FA"/>
<rect x="17" y="106" width="39" height="11" rx="2" fill="#F8F9FA"/>
<g filter="url(#filter1_d)">
<rect x="13" y="138" width="386" height="22" rx="2" fill="white"/>
</g>
<rect x="17.8857" y="143" width="107.494" height="5" rx="1" fill="#F8F9FA"/>
<rect x="17.8857" y="150" width="373.785" height="5" rx="1" fill="#F8F9FA"/>
<g filter="url(#filter2_d)">
<rect x="13" y="164" width="386" height="22" rx="2" fill="white"/>
</g>
<rect x="17.8857" y="169" width="107.494" height="5" rx="1" fill="#F8F9FA"/>
<rect x="17.8857" y="176" width="373.785" height="5" rx="1" fill="#F8F9FA"/>
<g filter="url(#filter3_d)">
<rect x="13" y="190" width="386" height="22" rx="2" fill="white"/>
</g>
<rect x="17.8857" y="195" width="107.494" height="5" rx="1" fill="#F8F9FA"/>
<rect x="17.8857" y="202" width="373.785" height="5" rx="1" fill="#F8F9FA"/>
<rect x="93.5" y="89.5" width="75" height="40" rx="3.5" fill="white" stroke="#E7F1FF"/>
<rect x="97" y="94" width="63" height="11" rx="2" fill="#F8F9FA"/>
<rect x="97" y="106" width="39" height="11" rx="2" fill="#F8F9FA"/>
<rect x="173.5" y="89.5" width="75" height="40" rx="3.5" fill="white" stroke="#E7F1FF"/>
<rect x="177" y="94" width="63" height="11" rx="2" fill="#F8F9FA"/>
<rect x="177" y="106" width="39" height="11" rx="2" fill="#F8F9FA"/>
<rect x="253.5" y="89.5" width="75" height="40" rx="3.5" fill="white" stroke="#E7F1FF"/>
<rect x="257" y="94" width="63" height="11" rx="2" fill="#F8F9FA"/>
<rect x="257" y="106" width="39" height="11" rx="2" fill="#F8F9FA"/>
<defs>
<filter id="filter0_d" x="402" y="46" width="66" height="42" filterUnits="userSpaceOnUse" color-interpolation-filters="sRGB">
<feFlood flood-opacity="0" result="BackgroundImageFix"/>
<feColorMatrix in="SourceAlpha" type="matrix" values="0 0 0 0 0 0 0 0 0 0 0 0 0 0 0 0 0 0 127 0"/>
<feOffset dy="4"/>
<feGaussianBlur stdDeviation="2"/>
<feColorMatrix type="matrix" values="0 0 0 0 0.12549 0 0 0 0 0.129412 0 0 0 0 0.141176 0 0 0 0.2 0"/>
<feBlend mode="normal" in2="BackgroundImageFix" result="effect1_dropShadow"/>
<feBlend mode="normal" in="SourceGraphic" in2="effect1_dropShadow" result="shape"/>
</filter>
<filter id="filter1_d" x="2" y="127" width="408" height="44" filterUnits="userSpaceOnUse" color-interpolation-filters="sRGB">
<feFlood flood-opacity="0" result="BackgroundImageFix"/>
<feColorMatrix in="SourceAlpha" type="matrix" values="0 0 0 0 0 0 0 0 0 0 0 0 0 0 0 0 0 0 127 0"/>
<feOffset/>
<feGaussianBlur stdDeviation="5.5"/>
<feColorMatrix type="matrix" values="0 0 0 0 0 0 0 0 0 0 0 0 0 0 0 0 0 0 0.1 0"/>
<feBlend mode="normal" in2="BackgroundImageFix" result="effect1_dropShadow"/>
<feBlend mode="normal" in="SourceGraphic" in2="effect1_dropShadow" result="shape"/>
</filter>
<filter id="filter2_d" x="2" y="153" width="408" height="44" filterUnits="userSpaceOnUse" color-interpolation-filters="sRGB">
<feFlood flood-opacity="0" result="BackgroundImageFix"/>
<feColorMatrix in="SourceAlpha" type="matrix" values="0 0 0 0 0 0 0 0 0 0 0 0 0 0 0 0 0 0 127 0"/>
<feOffset/>
<feGaussianBlur stdDeviation="5.5"/>
<feColorMatrix type="matrix" values="0 0 0 0 0 0 0 0 0 0 0 0 0 0 0 0 0 0 0.1 0"/>
<feBlend mode="normal" in2="BackgroundImageFix" result="effect1_dropShadow"/>
<feBlend mode="normal" in="SourceGraphic" in2="effect1_dropShadow" result="shape"/>
</filter>
<filter id="filter3_d" x="2" y="179" width="408" height="44" filterUnits="userSpaceOnUse" color-interpolation-filters="sRGB">
<feFlood flood-opacity="0" result="BackgroundImageFix"/>
<feColorMatrix in="SourceAlpha" type="matrix" values="0 0 0 0 0 0 0 0 0 0 0 0 0 0 0 0 0 0 127 0"/>
<feOffset/>
<feGaussianBlur stdDeviation="5.5"/>
<feColorMatrix type="matrix" values="0 0 0 0 0 0 0 0 0 0 0 0 0 0 0 0 0 0 0.1 0"/>
<feBlend mode="normal" in2="BackgroundImageFix" result="effect1_dropShadow"/>
<feBlend mode="normal" in="SourceGraphic" in2="effect1_dropShadow" result="shape"/>
</filter>
</defs>
</svg>

<svg width="468" height="232" fill="none" xmlns="http://www.w3.org/2000/svg"><path d="M.5 4A3.5 3.5 0 0 1 4 .5h403a3.5 3.5 0 0 1 3.5 3.5v13.623H.5V4Z" fill="#F3F8FF" stroke="#EFF0F1"/><rect x=".5" y=".5" width="410" height="230.066" rx="3.5" stroke="#E4E5E7"/><rect x="13.5" y="26.5" width="385" height="16" rx=".5" stroke="#EFF0F1"/><rect x="13" y="47" width="386" height="32" rx="2" fill="#EFF0F1"/><path fill="#202124" d="m406 56 7 7-7 7-7-7z"/><g filter="url(#a)"><rect x="406" y="46" width="58" height="34" rx="4" fill="#202124"/><path d="M421.717 67h1.318v-3.09h3.022v-1.104h-3.022v-1.974h3.341v-1.105h-4.659V67Zm7.324.11c.855 0 1.367-.401 1.601-.86h.043V67h1.236v-3.65c0-1.442-1.176-1.876-2.216-1.876-1.147 0-2.028.512-2.312 1.506l1.2.17c.128-.372.49-.692 1.119-.692.596 0 .923.306.923.842v.021c0 .37-.387.387-1.349.49-1.059.114-2.071.43-2.071 1.658 0 1.073.785 1.641 1.826 1.641Zm.333-.945c-.536 0-.919-.245-.919-.717 0-.493.429-.7 1.005-.781.337-.046 1.012-.132 1.179-.266v.642c0 .608-.49 1.122-1.265 1.122Zm6.219.941c1.37 0 2.244-.813 2.336-1.97H436.7c-.11.586-.532.923-1.097.923-.802 0-1.321-.671-1.321-1.786 0-1.101.529-1.762 1.321-1.762.618 0 .998.398 1.097.924h1.229c-.089-1.183-1.012-1.96-2.344-1.96-1.598 0-2.606 1.154-2.606 2.819 0 1.651.984 2.813 2.614 2.813Zm5.807 0c1.271 0 2.144-.62 2.372-1.57l-1.201-.134c-.174.462-.6.703-1.154.703-.831 0-1.381-.547-1.392-1.48h3.8v-.395c0-1.914-1.151-2.756-2.493-2.756-1.562 0-2.582 1.147-2.582 2.83 0 1.712 1.005 2.802 2.65 2.802Zm-1.371-3.348c.039-.696.554-1.282 1.321-1.282.738 0 1.236.54 1.243 1.282h-2.564Zm7.607-2.213h-1.076V60.24h-1.285v1.306h-.774v.995h.774v3.032c-.007 1.027.738 1.531 1.704 1.503a2.59 2.59 0 0 0 .757-.128l-.217-1.005c-.071.018-.217.05-.376.05-.324 0-.583-.114-.583-.633v-2.82h1.076v-.994Z" fill="#fff"/></g><path fill-rule="evenodd" clip-rule="evenodd" d="M354.715 109.118c.136.135.144.35.024.494l-.024.027-3.222 3.222a.367.367 0 0 1-.544-.494l.024-.027 2.962-2.962-2.962-2.962a.368.368 0 0 1-.024-.494l.024-.026a.368.368 0 0 1 .494-.024l.026.024 3.222 3.222Z" fill="#BDC1C6"/><rect x="13.5" y="89.5" width="75" height="40" rx="3.5" fill="#fff" stroke="#E7F1FF"/><rect x="17" y="94" width="63" height="11" rx="2" fill="#F8F9FA"/><rect x="17" y="106" width="39" height="11" rx="2" fill="#F8F9FA"/><g filter="url(#b)"><rect x="13" y="138" width="386" height="22" rx="2" fill="#fff"/></g><rect x="17.886" y="143" width="107.494" height="5" rx="1" fill="#F8F9FA"/><rect x="17.886" y="150" width="373.785" height="5" rx="1" fill="#F8F9FA"/><g filter="url(#c)"><rect x="13" y="164" width="386" height="22" rx="2" fill="#fff"/></g><rect x="17.886" y="169" width="107.494" height="5" rx="1" fill="#F8F9FA"/><rect x="17.886" y="176" width="373.785" height="5" rx="1" fill="#F8F9FA"/><g filter="url(#d)"><rect x="13" y="190" width="386" height="22" rx="2" fill="#fff"/></g><rect x="17.886" y="195" width="107.494" height="5" rx="1" fill="#F8F9FA"/><rect x="17.886" y="202" width="373.785" height="5" rx="1" fill="#F8F9FA"/><rect x="93.5" y="89.5" width="75" height="40" rx="3.5" fill="#fff" stroke="#E7F1FF"/><rect x="97" y="94" width="63" height="11" rx="2" fill="#F8F9FA"/><rect x="97" y="106" width="39" height="11" rx="2" fill="#F8F9FA"/><rect x="173.5" y="89.5" width="75" height="40" rx="3.5" fill="#fff" stroke="#E7F1FF"/><rect x="177" y="94" width="63" height="11" rx="2" fill="#F8F9FA"/><rect x="177" y="106" width="39" height="11" rx="2" fill="#F8F9FA"/><rect x="253.5" y="89.5" width="75" height="40" rx="3.5" fill="#fff" stroke="#E7F1FF"/><rect x="257" y="94" width="63" height="11" rx="2" fill="#F8F9FA"/><rect x="257" y="106" width="39" height="11" rx="2" fill="#F8F9FA"/><defs><filter id="a" x="402" y="46" width="66" height="42" filterUnits="userSpaceOnUse" color-interpolation-filters="sRGB"><feFlood flood-opacity="0" result="BackgroundImageFix"/><feColorMatrix in="SourceAlpha" values="0 0 0 0 0 0 0 0 0 0 0 0 0 0 0 0 0 0 127 0"/><feOffset dy="4"/><feGaussianBlur stdDeviation="2"/><feColorMatrix values="0 0 0 0 0.12549 0 0 0 0 0.129412 0 0 0 0 0.141176 0 0 0 0.2 0"/><feBlend in2="BackgroundImageFix" result="effect1_dropShadow"/><feBlend in="SourceGraphic" in2="effect1_dropShadow" result="shape"/></filter><filter id="b" x="2" y="127" width="408" height="44" filterUnits="userSpaceOnUse" color-interpolation-filters="sRGB"><feFlood flood-opacity="0" result="BackgroundImageFix"/><feColorMatrix in="SourceAlpha" values="0 0 0 0 0 0 0 0 0 0 0 0 0 0 0 0 0 0 127 0"/><feOffset/><feGaussianBlur stdDeviation="5.5"/><feColorMatrix values="0 0 0 0 0 0 0 0 0 0 0 0 0 0 0 0 0 0 0.1 0"/><feBlend in2="BackgroundImageFix" result="effect1_dropShadow"/><feBlend in="SourceGraphic" in2="effect1_dropShadow" result="shape"/></filter><filter id="c" x="2" y="153" width="408" height="44" filterUnits="userSpaceOnUse" color-interpolation-filters="sRGB"><feFlood flood-opacity="0" result="BackgroundImageFix"/><feColorMatrix in="SourceAlpha" values="0 0 0 0 0 0 0 0 0 0 0 0 0 0 0 0 0 0 127 0"/><feOffset/><feGaussianBlur stdDeviation="5.5"/><feColorMatrix values="0 0 0 0 0 0 0 0 0 0 0 0 0 0 0 0 0 0 0.1 0"/><feBlend in2="BackgroundImageFix" result="effect1_dropShadow"/><feBlend in="SourceGraphic" in2="effect1_dropShadow" result="shape"/></filter><filter id="d" x="2" y="179" width="408" height="44" filterUnits="userSpaceOnUse" color-interpolation-filters="sRGB"><feFlood flood-opacity="0" result="BackgroundImageFix"/><feColorMatrix in="SourceAlpha" values="0 0 0 0 0 0 0 0 0 0 0 0 0 0 0 0 0 0 127 0"/><feOffset/><feGaussianBlur stdDeviation="5.5"/><feColorMatrix values="0 0 0 0 0 0 0 0 0 0 0 0 0 0 0 0 0 0 0.1 0"/><feBlend in2="BackgroundImageFix" result="effect1_dropShadow"/><feBlend in="SourceGraphic" in2="effect1_dropShadow" result="shape"/></filter></defs></svg>
